X: 18045
T: Humours Of Avondale, The
R: jig
M: 6/8
K: Dmajor
|:Bee e2d|BAF AFA|Bcd e2d|BAF E2e|
Bee e2d|BAF A2f|efd edB|AFD EFA:|
|:Bee ede|fba fad|edB dfa|baf e2b|
baf efe|BAF A2f|efd edB|1 AFD EFA:|2 AFD E3||

